X:1
T: The Maids of Tulla
C:
R:Reel
Q: 232
K:A
M:4/4
L:1/8
|:eA ((3cBA) EA ((3cBA) |eA ce fe dc|bB ((3dcB) fB ((3dcB) |de fg ag af|
eA ((3cBA) EA ((3cBA) |eA cA fe dc|de fg af ec|df ed cA Ag|
aA ((3AAA) EA cA|aA ((3AAA) fe dc|bB ((3BBB) de fg|bB ((3BBB) de fg|
aA ((3AAA) EA cA|aA Ag fe dc|de fg af ec|df ed cA A2:|
